X:5897
T:Scottish
O:england
N:please mail errors to: simon.wascher@chello.at
M:2/4
L:1/16
K:Dm
D2FA D2FA|B2AGA4|Bcdc B2AG|F2G2 A3D|
D2FA D2FA|B2AGA4|Bcdc B2AG|A2fed4:|
|:d2efe2d2|cdcBA4|Bcdc B2AG|F2G2A4|
d2ef e2d2|cdcBA4|Bcdc B2AG|A2fed4:|
